X:40
T:Bransle Simple2
C:Claude Gervaise
L:1/8
M:4/4
O:France
Z:Andy Hornby
%%TUNEURL: http://www.leeds.ac.uk/music/Info/RRTuneBk/gettune/00000d8b.html
%%ID:00000d8b
K:G
cedB cedB|cedc B3G|AcBA G2E2|cedB cedB|cedc B3c|BAAG A4:|
|:ABcd e2f2|g2f2e2dc|BAcB c4|ABcd e2f2|g2f2e2dc|BAcB c4:|
